icons/1_Primary/Zoho.svg

<svg width="1024" height="1024" fill="none" xmlns="http://www.w3.org/2000/svg"><g clip-path="url(#a)"><path d="M512 1024c282.77 0 512-229.23 512-512S794.77 0 512 0 0 229.23 0 512s229.23 512 512 512Z" fill="#FF837D"/><path d="M716.17 553.46c-5.28-6.34-8-15.06-8-26.24 0-11.4 2.67-20.25 7.92-26.64 5.25-6.39 12.45-9.58 21.72-9.58s16.25 3.18 21.52 9.57c5.27 6.39 7.92 15.23 7.92 26.63 0 11.13-2.66 19.84-7.92 26.2-5.26 6.36-12.33 9.55-21.52 9.6-9.19.05-16.35-3.2-21.64-9.54Zm-45.1-99.84h135.81v145.55H671.07v-35.69L666.21 577 648 448.7l10-28.86 13 100.27.07-66.49ZM684 527.2a60.48 60.48 0 0 0 4 22.29A55.567 55.567 0 0 0 700 568a49.682 49.682 0 0 0 17 11.57 54.685 54.685 0 0 0 20.9 3.91 53.557 53.557 0 0 0 20.49-3.91A52.13 52.13 0 0 0 775.51 568a55.672 55.672 0 0 0 12.08-18.49 63 63 0 0 0 0-44.63 54.996 54.996 0 0 0-12.08-18.37 51.802 51.802 0 0 0-17.16-11.76 52.923 52.923 0 0 0-20.54-3.95 53.746 53.746 0 0 0-20.7 3.95A50.8 50.8 0 0 0 700 486.53a53.182 53.182 0 0 0-12 18.3 61.158 61.158 0 0 0-4 22.37Zm8.64-98.75-20 21.79H807.8l19-21.89-134.16.1Zm117.65 24.11v144.92L829 578.73v-147.8l-18.71 21.63Zm-165.45-2.13 18.5 130.24-131.69 18.5-14-98.48-43.88 99.64L355.59 547v-.09l53.31-121 104.83 47.3 13.36 6 .69-1.53-.52-2.09-4.83-2.18-113-51-11.75-39.81 120.06 55 1.73 6.89 2.84-9.55 133.37-18.54L645 447l-120.57 16.44.23 1.67.19.77.22.88 119.77-16.33Zm-149.62 57.15a57.352 57.352 0 0 0-3.61-20 51.315 51.315 0 0 0-10.88-17.85A50.37 50.37 0 0 0 463.61 458a51.142 51.142 0 0 0-20.16-4.24h-.31a50.21 50.21 0 0 0-20.39 4.58 55.333 55.333 0 0 0-18.32 12.82 69.25 69.25 0 0 0-18 42.57c-.04.86-.06 1.72-.06 2.58a58.09 58.09 0 0 0 3.45 19.7 49.136 49.136 0 0 0 10.78 17.59 51.813 51.813 0 0 0 17.47 11.8 50.924 50.924 0 0 0 20.09 4.2h.17a51.799 51.799 0 0 0 20.35-4.38 58.158 58.158 0 0 0 18.47-13 68.21 68.21 0 0 0 18-42.53c.047-.68.07-1.384.07-2.11Zm141.72 58.75a22.644 22.644 0 0 0-.25-3.27l-13.13-89.26c-.6-4.1-2-7.22-4.27-9.27a9.607 9.607 0 0 0-6.65-2.46c-.67.005-1.338.059-2 .16a10.348 10.348 0 0 0-7.74 4.75 12.852 12.852 0 0 0-1.76 6.88c.005 1.074.089 2.147.25 3.21l4.87 34.32-38.39 5.61-4.87-34.3c-.59-4-2-7.08-4.2-9.19a9.327 9.327 0 0 0-6.6-2.57c-.616.001-1.231.048-1.84.14-3.61.52-6.36 2.09-8 4.7a12.494 12.494 0 0 0-1.79 6.89c.008 1.098.095 2.194.26 3.28l13.12 89.26c.6 4.1 2 7.22 4.4 9.24a10.136 10.136 0 0 0 6.79 2.36 15.549 15.549 0 0 0 2.25-.17 9.75 9.75 0 0 0 7.39-4.72 13.104 13.104 0 0 0 1.64-6.72 22.23 22.23 0 0 0-.25-3.25l-5.36-35.27 38.34-5.64 5.36 35.27c.59 4.05 2 7.15 4.34 9.19a9.884 9.884 0 0 0 6.72 2.44c.686 0 1.371-.05 2.05-.15a10.183 10.183 0 0 0 7.67-4.71 12.839 12.839 0 0 0 1.65-6.75Zm-181.49-89.08a29.083 29.083 0 0 0-11.45-2.5 24.883 24.883 0 0 0-12.15 3.25c-7.38 4.06-13.4 11.49-18 22.36-3.007 7.093-4.507 13.613-4.5 19.56a31.854 31.854 0 0 0 1.14 8.57c2.26 8.1 7.48 13.84 15.86 17.41 3.55 1.567 7.38 2.4 11.26 2.45a25.006 25.006 0 0 0 12.18-3.24c7.37-4 13.33-11.33 17.84-22 3.107-7.334 4.653-14.03 4.64-20.09a32.003 32.003 0 0 0-1.08-8.41c-2.24-8.07-7.41-13.82-15.74-17.36ZM357.6 534l48.66-110.48-11.67-39.41-43.71 103.8-12.23-81.79-8.1 42.25 19 124.79 7.22-37.26.83-1.9Zm-162.25-66.93 132.05-20.22 8.72-45.49-131.83 21.13-6.67 33.28-2.26 11.29-.01.01Zm151.56 111.32-130.66 20.49-21-128.38 132.15-20.23 19.51 128.12Zm-30.06-14.14a12.86 12.86 0 0 0-.2-2.19 9.509 9.509 0 0 0-2-4.6 9.295 9.295 0 0 0-4.16-2.76 19.472 19.472 0 0 0-6.39-.91 48.372 48.372 0 0 0-8.1.78l-34.93 6c.37-2.69 1.71-6.23 4.06-10.54a144.028 144.028 0 0 1 11.64-17.38l4-5.39c.67-.83 1.6-2 2.8-3.65 8-10.48 12.93-19 14.83-25.71a53.827 53.827 0 0 0 2-11.48c.067-1.054.1-2.1.1-3.14a48.282 48.282 0 0 0-.68-8.16A22.3 22.3 0 0 0 298 469a8.623 8.623 0 0 0-3.09-3.64 11.73 11.73 0 0 0-6-1.24 47.468 47.468 0 0 0-7.79.78l-40.36 6.91c-4.89.84-8.5 2.28-10.8 4.44a8.599 8.599 0 0 0-2.77 6.49c.001.693.061 1.386.18 2.07a9.006 9.006 0 0 0 5.24 7.22 14.932 14.932 0 0 0 6.15 1.13c1.808-.02 3.611-.19 5.39-.51L277.9 487c.06.6.1 1.19.1 1.78a18.114 18.114 0 0 1-1.1 6.2c-1 2.8-3.51 6.79-7.5 11.87a676.922 676.922 0 0 0-5.2 6.48c-9.113 11.033-15.64 20.456-19.58 28.27a61.024 61.024 0 0 0-5.82 15.92 43.98 43.98 0 0 0-.94 8.78c-.006 1.956.155 3.91.48 5.84a23.65 23.65 0 0 0 2 6.7 8.776 8.776 0 0 0 3.46 3.85c1.32.71 3.25 1 5.92 1a86.221 86.221 0 0 0 13.7-1.48l36.62-6.26c6.48-1.12 11-2.66 13.62-4.82a8.534 8.534 0 0 0 3.19-6.88Z" fill="#fff"/></g><defs><clipPath id="a"><path fill="#fff" d="M0 0h1024v1024H0z"/></clipPath></defs></svg>

<svg width="1024" height="1024" viewBox="0 0 1024 1024" fill="none" xmlns="http://www.w3.org/2000/svg">
<g clip-path="url(#clip0_2_4042)">
<path d="M512 1024C794.77 1024 1024 794.77 1024 512C1024 229.23 794.77 0 512 0C229.23 0 0 229.23 0 512C0 794.77 229.23 1024 512 1024Z" fill="#FF837D"/>
<path d="M716.17 553.46C710.89 547.12 708.17 538.4 708.17 527.22C708.17 515.82 710.84 506.97 716.09 500.58C721.34 494.19 728.54 491 737.81 491C747.08 491 754.06 494.18 759.33 500.57C764.6 506.96 767.25 515.8 767.25 527.2C767.25 538.33 764.59 547.04 759.33 553.4C754.07 559.76 747 562.95 737.81 563C728.62 563.05 721.46 559.8 716.17 553.46ZM671.07 453.62H806.88V599.17H671.07V563.48L666.21 577L648 448.7L658 419.84L671 520.11L671.07 453.62ZM684 527.2C683.918 534.815 685.275 542.378 688 549.49C690.723 556.4 694.803 562.694 700 568C704.798 573 710.588 576.941 717 579.57C723.644 582.228 730.745 583.557 737.9 583.48C744.92 583.532 751.882 582.204 758.39 579.57C764.812 576.894 770.633 572.96 775.51 568C780.731 562.705 784.839 556.418 787.59 549.51C793.036 535.131 793.036 519.258 787.59 504.88C784.841 498.006 780.732 491.758 775.51 486.51C770.644 481.47 764.806 477.469 758.35 474.75C751.834 472.08 744.851 470.737 737.81 470.8C730.717 470.738 723.682 472.08 717.11 474.75C710.656 477.456 704.831 481.467 700 486.53C694.775 491.732 690.688 497.964 688 504.83C685.281 511.971 683.924 519.559 684 527.2ZM692.64 428.45L672.64 450.24H807.8L826.8 428.35L692.64 428.45ZM810.29 452.56V597.48L829 578.73V430.93L810.29 452.56ZM644.84 450.43L663.34 580.67L531.65 599.17L517.65 500.69L473.77 600.33L355.59 547V546.91L408.9 425.91L513.73 473.21L527.09 479.21L527.78 477.68L527.26 475.59L522.43 473.41L409.43 422.41L397.68 382.6L517.74 437.6L519.47 444.49L522.31 434.94L655.68 416.4L645 447L524.43 463.44L524.66 465.11L524.85 465.88L525.07 466.76L644.84 450.43ZM495.22 507.58C495.217 500.751 493.994 493.978 491.61 487.58C489.246 480.946 485.543 474.87 480.73 469.73C475.899 464.674 470.069 460.679 463.61 458C457.247 455.234 450.388 453.791 443.45 453.76H443.14C436.097 453.84 429.15 455.4 422.75 458.34C415.835 461.322 409.601 465.684 404.43 471.16C393.732 482.87 387.378 497.897 386.43 513.73C386.39 514.59 386.37 515.45 386.37 516.31C386.372 523.026 387.54 529.692 389.82 536.01C392.128 542.57 395.802 548.565 400.6 553.6C405.553 558.689 411.499 562.705 418.07 565.4C424.412 568.149 431.248 569.578 438.16 569.6H438.33C445.34 569.532 452.263 568.042 458.68 565.22C465.627 562.135 471.902 557.719 477.15 552.22C487.913 540.567 494.278 525.528 495.15 509.69C495.197 509.01 495.22 508.306 495.22 507.58ZM636.94 566.33C636.936 565.235 636.852 564.142 636.69 563.06L623.56 473.8C622.96 469.7 621.56 466.58 619.29 464.53C617.468 462.892 615.089 462.012 612.64 462.07C611.97 462.075 611.302 462.129 610.64 462.23C609.074 462.381 607.562 462.887 606.221 463.71C604.88 464.533 603.744 465.652 602.9 466.98C601.679 469.062 601.069 471.446 601.14 473.86C601.145 474.934 601.229 476.007 601.39 477.07L606.26 511.39L567.87 517L563 482.7C562.41 478.7 561 475.62 558.8 473.51C557.023 471.819 554.652 470.895 552.2 470.94C551.584 470.941 550.969 470.988 550.36 471.08C546.75 471.6 544 473.17 542.36 475.78C541.108 477.854 540.486 480.248 540.57 482.67C540.578 483.768 540.665 484.864 540.83 485.95L553.95 575.21C554.55 579.31 555.95 582.43 558.35 584.45C560.249 586.04 562.664 586.879 565.14 586.81C565.893 586.808 566.645 586.751 567.39 586.64C568.905 586.485 570.362 585.977 571.646 585.157C572.929 584.338 574.002 583.229 574.78 581.92C575.919 579.867 576.485 577.546 576.42 575.2C576.416 574.112 576.333 573.025 576.17 571.95L570.81 536.68L609.15 531.04L614.51 566.31C615.1 570.36 616.51 573.46 618.85 575.5C620.707 577.123 623.104 577.994 625.57 577.94C626.256 577.94 626.941 577.89 627.62 577.79C629.174 577.645 630.674 577.145 632.004 576.328C633.334 575.512 634.458 574.4 635.29 573.08C636.45 571.024 637.021 568.689 636.94 566.33ZM455.45 477.25C451.842 475.648 447.947 474.798 444 474.75C439.739 474.775 435.555 475.894 431.85 478C424.47 482.06 418.45 489.49 413.85 500.36C410.843 507.453 409.343 513.973 409.35 519.92C409.339 522.815 409.722 525.698 410.49 528.49C412.75 536.59 417.97 542.33 426.35 545.9C429.9 547.467 433.73 548.3 437.61 548.35C441.88 548.328 446.073 547.212 449.79 545.11C457.16 541.11 463.12 533.78 467.63 523.11C470.737 515.776 472.283 509.08 472.27 503.02C472.285 500.181 471.921 497.353 471.19 494.61C468.95 486.54 463.78 480.79 455.45 477.25ZM357.6 534L406.26 423.52L394.59 384.11L350.88 487.91L338.65 406.12L330.55 448.37L349.55 573.16L356.77 535.9L357.6 534ZM195.35 467.07L327.4 446.85L336.12 401.36L204.29 422.49L197.62 455.77L195.36 467.06L195.35 467.07ZM346.91 578.39L216.25 598.88L195.25 470.5L327.4 450.27L346.91 578.39ZM316.85 564.25C316.846 563.515 316.779 562.783 316.65 562.06C316.407 560.375 315.716 558.786 314.65 557.46C313.541 556.178 312.102 555.223 310.49 554.7C308.425 554.043 306.266 553.736 304.1 553.79C301.383 553.822 298.673 554.083 296 554.57L261.07 560.57C261.44 557.88 262.78 554.34 265.13 550.03C268.584 543.962 272.474 538.153 276.77 532.65L280.77 527.26C281.44 526.43 282.37 525.26 283.57 523.61C291.57 513.13 296.5 504.61 298.4 497.9C299.48 494.157 300.151 490.307 300.4 486.42C300.467 485.366 300.5 484.32 300.5 483.28C300.505 480.545 300.277 477.815 299.82 475.12C299.51 473.003 298.897 470.942 298 469C297.333 467.52 296.262 466.258 294.91 465.36C293.055 464.422 290.985 463.995 288.91 464.12C286.296 464.165 283.691 464.426 281.12 464.9L240.76 471.81C235.87 472.65 232.26 474.09 229.96 476.25C229.066 477.074 228.356 478.079 227.879 479.197C227.401 480.316 227.166 481.523 227.19 482.74C227.191 483.433 227.251 484.126 227.37 484.81C227.541 486.365 228.114 487.848 229.032 489.115C229.951 490.381 231.184 491.385 232.61 492.03C234.557 492.836 236.653 493.222 238.76 493.16C240.568 493.14 242.371 492.97 244.15 492.65L277.9 487C277.96 487.6 278 488.19 278 488.78C277.998 490.895 277.626 492.993 276.9 494.98C275.9 497.78 273.39 501.77 269.4 506.85C268.267 508.236 266.533 510.396 264.2 513.33C255.087 524.363 248.56 533.786 244.62 541.6C241.949 546.61 239.99 551.968 238.8 557.52C238.193 560.407 237.878 563.349 237.86 566.3C237.854 568.256 238.015 570.21 238.34 572.14C238.671 574.46 239.345 576.718 240.34 578.84C241.08 580.442 242.286 581.784 243.8 582.69C245.12 583.4 247.05 583.69 249.72 583.69C254.319 583.563 258.9 583.068 263.42 582.21L300.04 575.95C306.52 574.83 311.04 573.29 313.66 571.13C314.686 570.306 315.508 569.257 316.062 568.064C316.615 566.87 316.885 565.565 316.85 564.25Z" fill="white"/>
</g>
<defs>
<clipPath id="clip0_2_4042">
<rect width="1024" height="1024" fill="white"/>
</clipPath>
</defs>
</svg>
